X:46
T: Sandy Boys
M: 4/4
L: 1/8
R: reel
K: Amix
"A"[Aa]2 [Ag]2 [Ae]2 [Ag]2| edc2 A2 [Aa]2-|[Aa]2 [Ag]2 [Ae]2 [Ag]2| "G"a3b a2 a2-|
"A"[Aa]2 [Ag]2 [Ae]2 [Ag]2| edc2 A2AB| "A"c2e2 "E"edc2| "A"A6 A2 :|
|: "A" e4 e4| dAc2 A2AB| "A"c2e2 "D"d2AB| "A"c2e2 "D"dcA2|
 "A" e4 e4| dAc2 A2AB| "A"c2e2 "E"edc2| "A"A4 A4:|

%%newpage

